checkbook-arrow-right.svg

<svg fill="currentColor" viewBox="0 0 24 24"><path d="M5 14h10.53c-.28.31-.53.64-.73 1H5zm16-6v4.08c.72.12 1.39.37 2 .72V5H1v14h13.08a6.5 6.5 0 0 1-.08-1c0-.34.03-.67.08-1H3V8zM5 10h7v2H5zm19 8-3-3v2h-4v2h4v2z"/></svg>

<svg  viewBox="0 0 24 24" fill="currentColor"><path  d="M5 14H15.53C15.25 14.31 15 14.64 14.8 15H5V14M21 8V12.08C21.72 12.2 22.39 12.45 23 12.8V5H1V19H14.08C14.03 18.68 14 18.34 14 18C14 17.66 14.03 17.33 14.08 17H3V8H21M5 10H12V12H5V10M24 18L21 15V17H17V19H21V21L24 18Z"/></svg>
